X:4
T:Le Talencourt
N:Quebecois 'crooked' tune from 1930's recording. 38bar
A:Quebec
D:'Airs Tordus' Les Tetes de violon
O:Canada
Z:Neil Brookes
S:neroted <neil:brookes36.freeserve.co.uk> tradtunes 2002-1-18
M:2/4
L:1/16
Q:1/4=120
K:D
A3B \
| A2.d2 .d2f2 | edcB ABcd | efedc def | .g4 .f2ed \
| cdec d2fd | cdec d2fd | cde^g a2ed | c2Ac B2^G2 | A4 :| 
|: a3g \
| f2e2 defd | e4e deg | fgfe defd | e4e deg \
| f2ef g2fg | a4 abag | fafd egec | d4 :|
